!!!!SEGMENT: pl-sa--l-1643--027_anonim--paratum-cor-meum-deus.krn
!!!cenid: 16xx:1386
!!!COM: Anonim
!!!COM-rismID: pe30004985
!!!CDT:
!!!CNT:
!!!OTL: Paratum cor meum Deus
!!!PDT:
!!!AGN: Sacred
!!!YEC: Copyright 2022 Narodowy Instytut Fryderyka Chopina (https://polishscores.org)
!!!YEM: License CC-BY-4.0 (https://creativecommons.org/licenses/by/4.0)
!!!SMS-siglum: PL-SA
!!!SMS-shelfmark: L 1643
!!!SMS-shelfwork: 027 W
!!!SMS-variant:
!!!SMS-altvar:
!!!NIFC-rismSourceID: 1001064641
!!!NIFC-rismChildID: 1001064641
!!!NIFC-islandoraID:
!!!URL-pdf-islandora:
!!!URL-scan:
!!!IIIF:
!!!ONB-nifc: UWAGA: 8 ksiąg. Primi chori: 1mus Cantus (54-55), C 2dus (54-55), C 3tius (53-54), Bassus (50-51); Secondi chori: Primus Cantus (51-53), C 2dus (53-54), Altus (53-54), Bassus (53-54). UWAGA: metrum 2/1 i 3/2. Nie dodawać pustych linii, chyba że w rękopisie pojawiają się dodatkowe oznaczenia dotyczące pełnej obsady (a 4, a 8 itp.)
!!!AIN: 8 empty
!!!key:
**kern	**text	**kern	**text	**kern	**text	**kern	**text	**kern	**text	**kern	**text	**kern	**text	**kern	**text
*part8	*	*part7	*	*part6	*	*part5	*	*part4	*	*part3	*	*part2	*	*part1	*
*staff8	*	*staff7	*	*staff6	*	*staff5	*	*staff4	*	*staff3	*	*staff2	*	*staff1	*
*Iempty	*	*Iempty	*	*Iempty	*	*Iempty	*	*Iempty	*	*Iempty	*	*Iempty	*	*Iempty	*
*I"Bassus 2di Chori	*	*I"Altus 2di Chori	*	*I"Cantus 2dus 2di Chori	*	*I"Primus Cantus 2di chori	*	*I"Bassus Primi Chori	*	*I"Cantus 3tius Primi Chori	*	*I"Cantus 2dus Primi Chori	*	*I"1mus Cantus Primi Chori	*
*I'B Ch 2	*	*I'A Ch 2	*	*I'C 2 Ch 2	*	*I'C 1 Ch 2	*	*I'B Ch 1	*	*I'C 3 Ch 1	*	*I'C 2 Ch 1	*	*I'C 1 Ch 1	*
*clefC3	*	*clefC2	*	*clefC1	*	*clefG2	*	*clefC3	*	*clefC2	*	*clefC1	*	*clefG2	*
*k[]	*	*k[]	*	*k[]	*	*k[]	*	*k[]	*	*k[]	*	*k[]	*	*k[]	*
*d:	*	*d:	*	*d:	*	*d:	*	*d:	*	*d:	*	*d:	*	*d:	*
*M2/1	*	*M2/1	*	*M2/1	*	*M2/1	*	*M2/1	*	*M2/1	*	*M2/1	*	*M2/1	*
*met(C|)	*	*met(C|)	*	*met(C|)	*	*met(C|)	*	*met(C|)	*	*met(C|)	*	*met(C|)	*	*met(C|)	*
=1	=1	=1	=1	=1	=1	=1	=1	=1	=1	=1	=1	=1	=1	=1	=1
00r	.	00r	.	00r	.	00r	.	1A/	Pa-	00r	.	1r	.	0r	.
.	.	.	.	.	.	.	.	2d\	-ra-	.	.	1d/	Pa-	.	.
.	.	.	.	.	.	.	.	4d\	-tum	.	.	.	.	.	.
.	.	.	.	.	.	.	.	4d\	cor	.	.	.	.	.	.
=3-	=3-	=3-	=3-	=3-	=3-	=3-	=3-	=3-	=3-	=3-	=3-	=3-	=3-	=3-	=3-
.	.	.	.	.	.	.	.	2c#X\	me-	.	.	2a\	-ra-	1r	.
.	.	.	.	.	.	.	.	2d\,<	-um	.	.	4a\	-tum	.	.
.	.	.	.	.	.	.	.	.	.	.	.	4a\	cor	.	.
.	.	.	.	.	.	.	.	2e\	De-	.	.	2g#X/	me-	2r	.
.	.	.	.	.	.	.	.	2c#/	.	.	.	2a\	-um	2a/	Pa-
=5-	=5-	=5-	=5-	=5-	=5-	=5-	=5-	=5-	=5-	=5-	=5-	=5-	=5-	=5-	=5-
00r	.	00r	.	00r	.	00r	.	1B-X/	.	0r	.	(2a\	De-	2dd\	-ra-
.	.	.	.	.	.	.	.	.	.	.	.	2g#X\)	.	4dd\	-tum
.	.	.	.	.	.	.	.	.	.	.	.	.	.	4dd\	cor
.	.	.	.	.	.	.	.	2A,</	-us	.	.	4a\,<	-'-	2cc#X\	me-
.	.	.	.	.	.	.	.	.	.	.	.	4gny\	.	.	.
.	.	.	.	.	.	.	.	1d\	cor	.	.	4f/	.	2dd\	-um
.	.	.	.	.	.	.	.	.	.	.	.	4e/	.	.	.
=7-	=7-	=7-	=7-	=7-	=7-	=7-	=7-	=7-	=7-	=7-	=7-	=7-	=7-	=7-	=7-
.	.	.	.	.	.	.	.	.	.	2r	.	4f/	.	1ee\	De-
.	.	.	.	.	.	.	.	.	.	.	.	4g/	.	.	.
.	.	.	.	.	.	.	.	2c#X,</	.	2a\	Pa-	2a\	.	.	.
.	.	.	.	.	.	.	.	1d\,<	me-	2f\	-ra-	1a\	-us	2dd\,<	-us
.	.	.	.	.	.	.	.	.	.	4f\	-tum	.	.	2dd\	Pa-
.	.	.	.	.	.	.	.	.	.	4f\	cor	.	.	.	.
=9-	=9-	=9-	=9-	=9-	=9-	=9-	=9-	=9-	=9-	=9-	=9-	=9-	=9-	=9-	=9-
00r	.	0r	.	00r	.	00r	.	2cny,</	-um	2e/	me-	2r	.	2ee\	-ra-
.	.	.	.	.	.	.	.	2A/	.	2f\	-um	2a\	Pa-	4cc#X\,<	-tum'
.	.	.	.	.	.	.	.	.	.	.	.	.	.	4cc#\	cor
*	*	*	*	*	*	*	*	*lig	*	*	*	*	*	*	*
.	.	.	.	.	.	.	.	1B-X/	De-	2.d/	De-	2a\	-ra-	2dd\	me-
.	.	.	.	.	.	.	.	.	.	.	.	4g/	-tum	2dd\	-um
.	.	.	.	.	.	.	.	.	.	4e/	.	4g/	cor	.	.
=11-	=11-	=11-	=11-	=11-	=11-	=11-	=11-	=11-	=11-	=11-	=11-	=11-	=11-	=11-	=11-
.	.	0r	.	.	.	.	.	1A/	.	2f\	.	2a\	me-	(2dd\	De-
*	*	*	*	*	*	*	*	*	*	*	*	*custos:f	*	*	*
.	.	.	.	.	.	.	.	.	.	2e/	.	2a\	-um	2cc#X\)	.
*	*	*	*	*	*	*	*	*Xlig	*	*	*	*	*	*	*
!	!	!	!	!	!	!	!	!	!	!	!	!LO:LB:g=original	!	!	!
.	.	.	.	.	.	.	.	1d\	-us	1d/	-us	2f/	De-	1dd\	-us
.	.	.	.	.	.	.	.	.	.	.	.	2f/	-us	.	.
=13-	=13-	=13-	=13-	=13-	=13-	=13-	=13-	=13-	=13-	=13-	=13-	=13-	=13-	=13-	=13-
1A/	Pa-	1d/	Pa-	00r	.	0r	.	00r	.	00r	.	00r	.	00r	.
2d\	-ra-	2a\	-ra-	.	.	.	.	.	.	.	.	.	.	.	.
4d\	-tum	4a\	-tum	.	.	.	.	.	.	.	.	.	.	.	.
4d\	cor	4b\	cor	.	.	.	.	.	.	.	.	.	.	.	.
=15-	=15-	=15-	=15-	=15-	=15-	=15-	=15-	=15-	=15-	=15-	=15-	=15-	=15-	=15-	=15-
!LO:TX:b:t=mi	!	!	!	!	!	!	!	!	!	!	!	!	!	!	!
2d\	me-	2.cc\	me-	.	.	1r	.	.	.	.	.	.	.	.	.
2e\,<	-um	.	.	.	.	.	.	.	.	.	.	.	.	.	.
.	.	4b\	.	.	.	.	.	.	.	.	.	.	.	.	.
2.f\	De-	2a\	-um	.	.	1a/	Pa-	.	.	.	.	.	.	.	.
.	.	2g\	De-	.	.	.	.	.	.	.	.	.	.	.	.
4e\	.	.	.	.	.	.	.	.	.	.	.	.	.	.	.
=17-	=17-	=17-	=17-	=17-	=17-	=17-	=17-	=17-	=17-	=17-	=17-	=17-	=17-	=17-	=17-
1.d\	.	4f\	.	1d/	Pa-	2dd\	-ra-	00r	.	00r	.	00r	.	00r	.
.	.	4e\	.	.	.	.	.	.	.	.	.	.	.	.	.
.	.	4f\	.	.	.	4dd\	-tum	.	.	.	.	.	.	.	.
.	.	4g\	.	.	.	4dd\	cor	.	.	.	.	.	.	.	.
.	.	2f\	.	2a\	-ra-	2dd\	me-	.	.	.	.	.	.	.	.
2c#X/	.	2e/	-us	4a\	-tum	2ee\,<	-um	.	.	.	.	.	.	.	.
.	.	.	.	4a\,<	cor	.	.	.	.	.	.	.	.	.	.
=19-	=19-	=19-	=19-	=19-	=19-	=19-	=19-	=19-	=19-	=19-	=19-	=19-	=19-	=19-	=19-
1.d\	.	4d/	De-	2a\	me-	2.ff\	De-	.	.	.	.	.	.	.	.
.	.	4e/	.	.	.	.	.	.	.	.	.	.	.	.	.
.	.	4f\	.	2dd,<\	-um	.	.	.	.	.	.	.	.	.	.
.	.	4g\	.	.	.	4ee\	.	.	.	.	.	.	.	.	.
.	.	2f\	.	2.a\	De-	2dd\	.	.	.	.	.	.	.	.	.
2A/	-us	2e/	.	.	.	2cc#X\	.	.	.	.	.	.	.	.	.
.	.	.	.	4g/	.	.	.	.	.	.	.	.	.	.	.
=21-	=21-	=21-	=21-	=21-	=21-	=21-	=21-	=21-	=21-	=21-	=21-	=21-	=21-	=21-	=21-
*custos:a	*	*custos:a	*	*	*	*	*	*	*	*	*	*	*	*	*
1d\	pa-	1f\	-us	4f/	.	1dd\	.	00r	.	00r	.	00r	.	00r	.
.	.	.	.	4g/	.	.	.	.	.	.	.	.	.	.	.
.	.	.	.	2a\	-us	.	.	.	.	.	.	.	.	.	.
!LO:LB:g=original	!	!LO:LB:g=original	!	!	!	!	!	!	!	!	!	!	!	!	!
2A/	-ra-	2r	.	2r	.	1cc#X\,<	-us	.	.	.	.	.	.	.	.
4A/	-tum	2a\	pa-	2a\	pa-	.	.	.	.	.	.	.	.	.	.
4B/	cor	.	.	.	.	.	.	.	.	.	.	.	.	.	.
=23-	=23-	=23-	=23-	=23-	=23-	=23-	=23-	=23-	=23-	=23-	=23-	=23-	=23-	=23-	=23-
2c#X/	me-	2a\	-ra-	1a\	-ra-	2.a/	De-	.	.	.	.	.	.	.	.
2d\	-um	4f\	-tum	.	.	.	.	.	.	.	.	.	.	.	.
.	.	4f\	cor	.	.	4b\	.	.	.	.	.	.	.	.	.
0A/	De-	2a\	me-	4ee\	-tum	4.cc#X\	.	.	.	.	.	.	.	.	.
.	.	.	.	4ee\	cor-	.	.	.	.	.	.	.	.	.	.
.	.	.	.	.	.	8a/	.	.	.	.	.	.	.	.	.
.	.	2a\	-um	4ff\	-me-	1dd\	.	.	.	.	.	.	.	.	.
.	.	.	.	4ff\	-u(m)	.	.	.	.	.	.	.	.	.	.
=25-	=25-	=25-	=25-	=25-	=25-	=25-	=25-	=25-	=25-	=25-	=25-	=25-	=25-	=25-	=25-
.	.	1a\	De-	1ee\	De-	.	.	1r	.	1r	.	1r	.	1r	.
*	*	*	*	*	*	*custos:d	*	*	*	*	*	*	*	*	*
.	.	.	.	.	.	2cc#X\	.	.	.	.	.	.	.	.	.
!	!	!	!	!	!	!LO:LB:g=original	!	!	!	!	!	!	!	!	!
1d\	-us	1f\	-us	1dd\	-us	1dd\	-us	2r	.	2r	.	2r	.	2r	.
*	*	*	*	*	*	*	*	*custos	*	*	*	*	*	*	*
.	.	.	.	.	.	.	.	2d\	pa-	2f\	pa-	2a\	pa-	2dd\	Pa-
=27-	=27-	=27-	=27-	=27-	=27-	=27-	=27-	=27-	=27-	=27-	=27-	=27-	=27-	=27-	=27-
!	!	!	!	!	!	!	!	!LO:LB:g=original	!	!	!	!LO:TX:t=P:problem=♯above	!	!	!
2r	.	2r	.	2r	.	2r	.	2A/	-ra-	2a\	-ra-	2cc#X\	-ra-	2ee\	-ra-
*	*	*	*ij	*	*	*	*	*	*	*	*	*	*	*	*
*	*	*	*	*custos:a	*	*	*	*	*	*	*	*	*	*	*
2a\	Pa-	2a\	pa-	2a\	pa-	2ee\	pa-	4A/	-tu(m)	4a\	-tum	4cc#\	-tum	4ee\	-tum
*	*	*	*	*	*	*	*	*	*	*	*	*	*	*custos	*
.	.	.	.	.	.	.	.	4A/	cor	4a\	cor	4cc#\	cor	4ee\	cor
!	!	!	!	!LO:LB:g=original	!	!	!	!	!	!	!	!	!	!LO:LB:g=original	!
2d\	-ra-	2f\	-ra-	2a\	-ra-	2dd\	-ra-	1d\	me-	1a\	me-	1a\	me-	1ff#X\	me-
4d\	-tum	4f\	-tum	4a\	-tum	4dd\	-tum	.	.	.	.	.	.	.	.
4d\	cor	4f\	cor	4dd\	cor	4dd\	cor	.	.	.	.	.	.	.	.
=29-	=29-	=29-	=29-	=29-	=29-	=29-	=29-	=29-	=29-	=29-	=29-	=29-	=29-	=29-	=29-
1g\	me-	1g\	me-	1b\	me-	1dd\	me-	1G/	-um	1g\	-um	1b\	-um.	1dd\	-um
1cny\	-um	1.g\	-um	1cc\	-um	1ee\	-um	2r	.	2r	.	2r	.	2r	.
*	*	*	*	*	*ij	*	*ij	*	*	*	*	*	*ij	*	*
*	*	*	*	*	*	*	*	*	*	*custos:a	*	*	*	*	*
.	.	.	.	.	.	.	.	2c/	Pa-	2g\	pa-	2ccny\	Pa-	2ee\	Pa-
=31-	=31-	=31-	=31-	=31-	=31-	=31-	=31-	=31-	=31-	=31-	=31-	=31-	=31-	=31-	=31-
!	!	!	!	!	!	!	!	!	!	!LO:LB:g=original	!	!	!	!	!
2r	.	.	.	2r	.	2r	.	2F/	-ra-	2a\	-ra-	2cc\	-ra-	2ff\ny	-ra-
2f\	Pa-	2f\	pa-	2a\	pa-	2cc\ny	pa-	4F/	-tum	4a\	-tum	4cc\	-tum	4ff\	-tum
.	.	.	.	.	.	.	.	4F/	cor	4a\	cor	4cc\	cor	4ff\	cor
2B-X/	-ra-	2f\	-ra-	2b-X\	-ra-	2dd\	-ra-	1B-X/	me-	1f\	me-	1b-X\	me-	1ff\	me-
4B-,</	-tum	4f\	-tum	4b-\	-tum	4dd\	-tum	.	.	.	.	.	.	.	.
4B-/	cor	4f\	cor	4b-\	cor	4dd\	cor	.	.	.	.	.	.	.	.
=33-	=33-	=33-	=33-	=33-	=33-	=33-	=33-	=33-	=33-	=33-	=33-	=33-	=33-	=33-	=33-
1f\	me-	1a\	me-	1a\	me-	1cc\	me-	1F/	-um	1a\	-um	1cc\	-um	1ff\	-um
*	*	*	*	*	*	*	*	*	*	*	*	*	*Xij	*	*
1c\	-um	1g\	-um	1cc\	-um	1ee\,<	-um	2r	.	2r	.	2r	.	2r	.
*	*	*	*Xij	*	*Xij	*	*Xij	*	*	*	*	*	*	*	*
.	.	.	.	.	.	.	.	2c/	can-	2g\	can-	2cc\	Can-	2ee\	can-
=35-	=35-	=35-	=35-	=35-	=35-	=35-	=35-	=35-	=35-	=35-	=35-	=35-	=35-	=35-	=35-
2r	.	2r	.	2r	.	2r	.	2f\	-ta-	2a\	-ta-	8a\L	.	8cc\Lny	-ta-
.	.	.	.	.	.	.	.	.	.	.	.	8g\	.	8b\	.
.	.	.	.	.	.	.	.	.	.	.	.	8a\	.	8cc\	.
.	.	.	.	.	.	.	.	.	.	.	.	8b\Jny	.	8dd\J	.
4r	.	4r	.	4r	.	4r	.	2c/	-bo	2g\	-bo	4cc\	-ta-	4ee\	.
*custos:a	*	*	*	*	*	*	*	*	*	*	*	*	*	*	*
4c/	can-	4g\	can-	4cc\	can-	4ee\	can-	.	.	.	.	4cc\	-bo	4ee\	-bo
!LO:LB:g=original	!	!	!	!	!	!	!	!	!	!	!	!	!	!	!
8A/L	-ta-	2a\	-ta-	2.cc\	-ta-	8cc\L	-ta-	2r	.	2r	.	2r	.	2r	.
8G/	.	.	.	.	.	8b\	.	.	.	.	.	.	.	.	.
8A/	.	.	.	.	.	8cc\	.	.	.	.	.	.	.	.	.
8B/Jny	.	.	.	.	.	8dd\J	.	.	.	.	.	.	.	.	.
4c/	.	2g\	-bo	.	.	4ee\	.	4r	.	4r	.	4r	.	4r	.
*	*	*	*	*	*	*	*	*	*	*	*	*	*	*	*ij
4c/	-bo	.	.	4cc\	-bo	4ee\	-bo	4c/	can-	4e/	can-	4g/	Can-	4ee\	can-
=37-	=37-	=37-	=37-	=37-	=37-	=37-	=37-	=37-	=37-	=37-	=37-	=37-	=37-	=37-	=37-
2r	.	2r	.	2r	.	2r	.	8B-X/L	-ta-	2.f\	-ta-	4b-X\	-ta-	8dd\L	-ta-
!	!	!	!	!	!	!	!	!LO:TX:b:t=mi	!	!	!	!	!	!	!
.	.	.	.	.	.	.	.	8A/	.	.	.	.	.	8cc\	.
.	.	.	.	.	.	.	.	8B-/	.	.	.	8b-\	-bo	8dd\	.
.	.	.	.	.	.	.	.	8c/J	.	.	.	8b-\	Can-	8ee\J	.
4r	.	4r	.	4r	.	4r	.	4d\	.	.	.	4a\	-ta-	4ff\	.
*	*	*custos:g	*	*	*	*	*	*	*	*	*	*	*	*	*
4d\	can-	4f\	can-	4a\	can-	4dd\	can-	4d\	-bo	4a\	-bo	4dd\	-bo	4ff\	-bo
*	*	*	*	*	*	*	*	*	*	*	*	*	*	*	*Xij
!	!	!LO:LB:g=original	!	!	!	!	!	!	!	!	!	!	!	!	!
8c/L	-ta-	2.g\	-ta-	4cc\	-ta-	8ee\L	-ta-	2r	.	2r	.	2r	.	2r	.
8B/	.	.	.	.	.	8dd\	.	.	.	.	.	.	.	.	.
8c/	.	.	.	8cc\	-bo	8ee\	.	.	.	.	.	.	.	.	.
8d/J	.	.	.	8cc\	can-	8ff\J	.	.	.	.	.	.	.	.	.
4e\	.	.	.	4b\ny	-ta-	4gg\	.	4r	.	4r	.	4r	.	4r	.
*	*	*	*	*	*	*custos:e	*	*	*	*	*	*	*	*	*
4e\	-bo	4g\	-bo	4ee\	-bo	4gg\	-bo	4e\	et	4g\	et	4bny\	et	4ee\	et
=39-	=39-	=39-	=39-	=39-	=39-	=39-	=39-	=39-	=39-	=39-	=39-	=39-	=39-	=39-	=39-
!	!	!	!	!	!	!LO:LB:g=original	!	!	!	!	!	!	!	!	!
1r	.	1r	.	1r	.	1r	.	4d\	psal-	4a\	psal-	4dd\	psal-	4ff\	pſal-
.	.	.	.	.	.	.	.	4c#X/	-mu(m)	4a\	-mu(m)	4ee\	-mum	4ee\	-mu(m)
.	.	.	.	.	.	.	.	(4d\	di-	(4a\	di-	(4dd\	di-	(4ff\	di-
*	*	*	*	*	*	*	*	*custos:a	*	*	*	*	*	*	*
.	.	.	.	.	.	.	.	4e\)	.	4g#X\)	.	4b\)	.	4ee\)	.
!	!	!	!	!	!	!	!	!LO:LB:g=original	!	!	!	!	!	!	!
4r	.	4r	.	4r	.	4r	.	2A/	-cam	2a\	-cam	2cc#X\	-cam	2ee\	-cam
4A/	et	4a\	et	4cc#X\	et	4ee\	et	.	.	.	.	.	.	.	.
*	*	*	*	*	*	*	*	*	*	*	*	*	*	*custos:d	*
4d\	psal-	4a\	psal-	4dd\	psal-	4ff\	psal-	2r	.	2r	.	2r	.	2r	.
4B-X/	-mum	4g\	-mum	4dd\	-mum,	4dd\	-mum	.	.	.	.	.	.	.	.
=41-	=41-	=41-	=41-	=41-	=41-	=41-	=41-	=41-	=41-	=41-	=41-	=41-	=41-	=41-	=41-
!	!	!	!	!	!	!	!	!	!	!	!	!	!	!LO:LB:g=original	!
4G/	di-	2e/	di-	(4b-X\	di-	(4dd\	di-	2r	.	2r	.	2r	.	2r	.
*	*	*	*	*custos:a	*	*	*	*	*	*	*	*	*	*	*
4A/	.	.	.	4a\)	.	4cc#X\)	.	.	.	.	.	.	.	.	.
!	!	!	!	!LO:LB:g=original	!	!	!	!	!	!	!	!	!	!	!
2d\	-cam	2f#X\	-cam	2a\	-cam	2dd\,<	-cam	4r	.	4r	.	4r	.	4r	.
*	*	*	*	*	*	*	*	*	*	*	*	*custos:b	*	*	*
.	.	.	.	.	.	.	.	4d\	et	4f#X\	et	4a\	et	4dd\	et
!	!	!	!	!	!	!	!	!	!	!	!	!LO:LB:g=original	!	!	!
2g\	et	2d/	et	2g/	et	2dd\	et	1.G/	psal-	1.gny\	psal-	2.b-X\	psal-	4dd\	pſal-
.	.	.	.	.	.	.	.	.	.	.	.	.	.	4cc\	.
1g\	psal-	2g\	psal-	1b-X\	psal-	4dd\	psal-	.	.	.	.	.	.	4b-X\	.
.	.	.	.	.	.	4cc\ny	.	.	.	.	.	4a\	.	4cc\	.
=43-	=43-	=43-	=43-	=43-	=43-	=43-	=43-	=43-	=43-	=43-	=43-	=43-	=43-	=43-	=43-
.	.	1d/	-mu(m)	.	.	4b-X\	-mu(m)	.	.	.	.	2g/	.	4dd\	.
.	.	.	.	.	.	4cc\	.	.	.	.	.	.	.	4ee\	.
2d\	-mum	.	.	2a\	-mu(m)	2dd\	di-	2d\	-mum	2f#\	-mum	2a\	-mum	2ff,<\	-mum
0a\	di-	2e/	di-	0a\	di-	2cc#X\	.	0A/	di-	0a\	di-	0a\	di-	2ee\	di-
.	.	2d/	.	.	.	1dd\	.	.	.	.	.	.	.	2ff\	.
=45-	=45-	=45-	=45-	=45-	=45-	=45-	=45-	=45-	=45-	=45-	=45-	=45-	=45-	=45-	=45-
.	.	1e\	.	.	.	.	.	.	.	.	.	.	.	1ee\	.
.	.	.	.	.	.	2cc#X\	.	.	.	.	.	.	.	.	.
1d\	-cam	1f#X\	-cam	1a\	-cam	1dd\	-cam	1d\	-cam	1f#X\	-cam	1a\	-cam	1dd\	-cam
=47-	=47-	=47-	=47-	=47-	=47-	=47-	=47-	=47-	=47-	=47-	=47-	=47-	=47-	=47-	=47-
*M3/2	*	*M3/2	*	*M3/2	*	*M3/2	*	*M3/2	*	*M3/2	*	*M3/2	*	*M3/2	*
*custos:A	*	*	*	*	*	*	*	*	*	*	*	*	*	*	*
0.r	.	0.r	.	0.r	.	0.r	.	1A/	E-	1a\	E-	1a\	E-	1cc#X\	E-
*	*	*	*	*	*	*	*	*	*	*custos:f	*	*	*	*	*
.	.	.	.	.	.	.	.	1A/	-xur-	1a\	-xur-	1a\	-xur-	1cc#\	-xur-
.	.	.	.	.	.	.	.	.	.	.	.	.	.	.	.
!	!	!	!	!	!	!	!	!	!	!LO:LB:g=original	!	!	!	!	!
.	.	.	.	.	.	.	.	1d\	-ge	1fny\,<	-ge	1a\,<	-ge	1dd\	-ge
=49-	=49-	=49-	=49-	=49-	=49-	=49-	=49-	=49-	=49-	=49-	=49-	=49-	=49-	=49-	=49-
!LO:LB:g=original	!	!	!	!	!	!	!	!	!	!	!	!	!	!	!
1A/	E-	1a\	E-	1a\	E-	1ee\	E-	1.c#X\	glo-	1.a\	glo-	1.a\	glo-	1.ee\	glo-
1A/	-xur-	1a\	-xur-	1a\	-xur-	1ee\	-xur-	.	.	.	.	.	.	.	.
.	.	.	.	.	.	.	.	2c#/	-ri-	2a\	-ri-	2a\	-ri-	2ee\	-ri-
1d\	-ge	1fny\	-ge	1a\	-ge	1dd\	-ge	1d\	-a	1a\,<	-a	1a\,<	-a	1ff\	-a
=51-	=51-	=51-	=51-	=51-	=51-	=51-	=51-	=51-	=51-	=51-	=51-	=51-	=51-	=51-	=51-
1.c#X\	glo-	1.a\	glo-	1.a\	glo-	1.ee\	glo-	0A/	me-	0a\	me-	0a\	me-	0ee\	me-
2c#/	-ri-	2a\	-ri-	2a\	-ri-	2ee\	-ri-	.	.	.	.	.	.	.	.
1d\	-a	1a\	-a	1a\	-a	1ff\	-a	1d\,<	-a	1f\,<	-a	1a\,<	-a	1dd\,<	-a
=53-	=53-	=53-	=53-	=53-	=53-	=53-	=53-	=53-	=53-	=53-	=53-	=53-	=53-	=53-	=53-
0A/	me-	0a\	me-	0a\	me-	0ee\	me-	1A/	e-	1a\	e-	1a\	e-	1ee\	E-
.	.	.	.	.	.	.	.	1A/	-xur-	1a\	-xur-	1a\	-xur-	1ee\	-xur-
.	.	.	.	.	.	.	.	.	.	.	.	.	.	.	.
*	*	*custos:a	*	*	*	*custos:e	*	*	*	*	*	*	*	*	*
1d\,<	-a	1a\	-a.	1a\,<	-a	1dd\	-a	1d\	-ge	1f\	-ge	1a\	-ge	1ff\,<	-ge
=55-	=55-	=55-	=55-	=55-	=55-	=55-	=55-	=55-	=55-	=55-	=55-	=55-	=55-	=55-	=55-
!	!	!LO:PB:g=original	!	!	!	!LO:PB:g=original	!	!	!	!	!	!	!	!	!
1A/	e-	1a\	e-	1a\	e-	1ee\	e-	1.c#X\	glo-	1.a\	glo-	1.a\	glo-	1.ee\	glo-
1A/	-xur-	1a\	-xur-	1a\	-xur-	1ee\	-xur-	.	.	.	.	.	.	.	.
.	.	.	.	.	.	.	.	2c#/	-ri-	2a\	-ri-	2a\	-ri-	2ee\	-ri-
*	*	*	*	*	*	*	*	*	*	*	*	*	*	*custos:e	*
1d\	-ge	1f\	-ge	1a\,<	-ge	1ff\	-ge	1d\	-a	1a\,<	-a	1a\,<	-a	1dd\	-a
=57-	=57-	=57-	=57-	=57-	=57-	=57-	=57-	=57-	=57-	=57-	=57-	=57-	=57-	=57-	=57-
!	!	!	!	!	!	!	!	!	!	!	!	!	!	!LO:LB:g=original	!
1.c#X\	glo-	1.a\	glo-	1.a\	glo-	1.ee\	glo-	0A/	me-	0a\	me-	0a\	me-	0ee\	me-
2c#/	-ri-	2a\	-ri-	2a\	-ri-	2cc#X\	-ri-	.	.	.	.	.	.	.	.
1d\	-a	1a\	-a	1a\	-a	1dd\	-a	1d\	-a	1f\	-a	1a\	-a	1dd\	-a
=59-	=59-	=59-	=59-	=59-	=59-	=59-	=59-	=59-	=59-	=59-	=59-	=59-	=59-	=59-	=59-
*	*	*	*	*	*	*	*	*custos:d	*	*	*	*	*	*	*
0A/	me-	0a\	me-	0a\	me-	0cc#X\	me-	0.r	.	0.r	.	0.r	.	0.r	.
.	.	.	.	.	.	.	.	.	.	.	.	.	.	.	.
1d\	-a	1f\	-a	1a\	-a	1dd\	-a	.	.	.	.	.	.	.	.
=61-	=61-	=61-	=61-	=61-	=61-	=61-	=61-	=61-	=61-	=61-	=61-	=61-	=61-	=61-	=61-
*M2/1	*	*M2/1	*	*M2/1	*	*M2/1	*	*M2/1	*	*M2/1	*	*M2/1	*	*M2/1	*
*met(C|)	*	*met(C|)	*	*met(C|)	*	*met(C|)	*	*met(C|)	*	*met(C|)	*	*met(C|)	*	*met(C|)	*
!	!	!	!	!LO:TX:t=P:♯below:problem	!	!	!	!LO:LB:g=original	!	!	!	!	!	!	!
2A/	e-	2a\	e-	2cc#\	e-	2ee\	e-	0r	.	0r	.	0r	.	0r	.
*	*	*	*	*custos:b	*	*	*	*	*	*	*	*	*	*	*
2d\	-xur-	2a\	-xur-	2dd\	-xur-	2ff\	-xur-	.	.	.	.	.	.	.	.
!	!	!	!	!LO:PB:g=original	!	!	!	!	!	!	!	!	!	!	!
4G/	-ge	4g\	-ge	4b\ny	-ge	4dd\	-ge	.	.	.	.	.	.	.	.
4G/	psal-	4g\	psal-	4b\	psal-	4dd\	psal-	.	.	.	.	.	.	.	.
4.cny/	-te-	4.g\	-te-	4.ccny\	-te-	4.ee\	-te-	.	.	.	.	.	.	.	.
*custos:G	*	*	*	*	*	*	*	*	*	*	*	*	*	*	*
8c/	-ri-	8g\	-ri-	8cc\	-ri-	8ee\	-ri-	.	.	.	.	.	.	.	.
=63-	=63-	=63-	=63-	=63-	=63-	=63-	=63-	=63-	=63-	=63-	=63-	=63-	=63-	=63-	=63-
!LO:PB:g=original	!	!	!	!	!	!	!	!	!	!	!	!	!	!	!
4G/	-um	4a\	-um	4cc\	-um	4ff\,<	-um	1r	.	1r	.	1r	.	1r	.
4F/	et	4a\	et	4cc\	et	4dd\	et	.	.	.	.	.	.	.	.
4G/	Ci-	4g\	Ci-	4b-X\	Ci-	4dd\	Ci-	.	.	.	.	.	.	.	.
4A/	-tha-	4e/	-tha-	4a\	-tha-	4cc#X\	-tha-	.	.	.	.	.	.	.	.
2d\	-ra	2f\	-ra	2a\	-ra	2dd\	-ra	2d\	e-	2a\	e-	2dd\	e-	2ff\	E-
*	*	*	*	*	*	*	*	*	*	*	*	*custos:d	*	*	*
2r	.	2r	.	2r	.	2r	.	2a\	-xur-	2a\	-xur-	2cc#X\	-xur-	2ee\	-xur-
=65-	=65-	=65-	=65-	=65-	=65-	=65-	=65-	=65-	=65-	=65-	=65-	=65-	=65-	=65-	=65-
!	!	!	!	!	!	!	!	!	!	!	!	!LO:LB:g=original	!	!	!
1r	.	1r	.	1r	.	1r	.	4f\	-gam	4a\	-gam	4dd\	-gam	4ff\	-gam
.	.	.	.	.	.	.	.	4d\	di-	4a\	di-	4dd\	di-	4ff\	di-
.	.	.	.	.	.	.	.	4.e\	-lu-	4.g#X\	-lu-	4.bny\	-lu-	4.ee\	-lu-
.	.	.	.	.	.	.	.	8e\	-cu-	8g#\	-cu-	8b\	-cu-	8ee\	-cu-
2r	.	2r	.	2r	.	2r	.	1A/	-lo	2a\	-lo	1cc#X\	-lo	1ee\	-lo
*	*	*	*	*	*	*	*	*	*	*custos:a	*	*	*	*	*
2A/	e-	2a\	e-	2cc#X\	e-	2ee\	e-	.	.	2r	.	.	.	.	.
=67-	=67-	=67-	=67-	=67-	=67-	=67-	=67-	=67-	=67-	=67-	=67-	=67-	=67-	=67-	=67-
!	!	!	!	!	!	!	!	!	!	!LO:LB:g=original	!	!	!	!	!
2d\	-xur-	2f\	-xur-	2dd\	-xur-	2ff\	-xur-	2r	.	2r	.	2r	.	2r	.
*	*	*custos:a	*	*	*	*	*	*	*	*	*	*	*	*	*
2A/	-ge	2g\	-ge	2cc#X\	-ge	2ee\	-ge	4r	.	4r	.	4r	.	4r	.
.	.	.	.	.	.	.	.	4A/	e-	4a\	e-	4cc#X\	e-	4ee\	E-
!	!	!LO:LB:g=original	!	!	!	!	!	!	!	!	!	!	!	!	!
2r	.	2r	.	2r	.	2r	.	2d\	-xur-	2f\	-xur-	2dd\	-xur-	2ff\	-xur-
4r	.	4r	.	4r	.	4r	.	2A/	-ge	2a\	-ge	2cc#X\	-ge	2ee\	-gam,
*	*ij	*	*	*	*	*	*ij	*	*	*	*	*	*	*	*
4A/	e-	4a\	e-	4cc#X\	e-	4ee\	e-	.	.	.	.	.	.	.	.
=69-	=69-	=69-	=69-	=69-	=69-	=69-	=69-	=69-	=69-	=69-	=69-	=69-	=69-	=69-	=69-
2d\	-xur-	2f#X\	-xur-	2a\	-xur-	2dd\	-xur-	4r	.	4r	.	4r	.	4r	.
.	.	.	.	.	.	.	.	4d\	e-	4a\	e-	4dd\	e-	4dd\	e-
*	*	*	*	*	*	*custos:g	*	*	*	*	*	*	*	*	*
2G/	-ge	2g\	-ge	2bny\	-ge	2dd\	-ge	2g\	-xur-	2gny\	-xur-	2b\	-xur-	2dd\	-xur-
*	*Xij	*	*	*	*	*	*Xij	*	*	*	*	*	*	*	*
!	!	!	!	!	!	!LO:LB:g=original	!	!	!	!	!	!	!	!	!
1r	.	1r	.	1r	.	1r	.	4.cny/	-ge	4g\	-ge	4ccny\	-ge	4ee\	-ge
.	.	.	.	.	.	.	.	.	.	4g\	psal-	4cc\	psal-	4ee\	psal-
.	.	.	.	.	.	.	.	8c/	psal-	.	.	.	.	.	.
.	.	.	.	.	.	.	.	4.f\	-te-	4.a\	-te-	4.a\	-te-	4.ccny\	-te-
.	.	.	.	.	.	.	.	8f\	-ri-	8a\	-ri-	8b\	-ri-	8dd\	-ri-
=71-	=71-	=71-	=71-	=71-	=71-	=71-	=71-	=71-	=71-	=71-	=71-	=71-	=71-	=71-	=71-
2r	.	2r	.	2r	.	2r	.	4c/,<	-um	4g\,<	-um	4cc\	-um	4ee\	-um
.	.	.	.	.	.	.	.	4e\	et	4g\	et	4cc\	et	4ee\	et
4r	.	4r	.	4r	.	4r	.	4f\	ci-	4a\	Ci-	4cc\	Ci-	4.dd\	Ci-
4G/	e-	4g\	e-	4dd\	e-	4gg\	e-	4g\	-tha-	4g\	-tha-	4b\	-tha-	.	.
.	.	.	.	.	.	.	.	.	.	.	.	.	.	8dd\	-tha-
*	*	*	*	*	*	*	*	*	*	*	*	*	*	*custos:g	*
2c/	-xur-	2g\	-xur-	2ccny\	-xur-	2ee\	-xur-	1c\	-ra	1g\	-ra	1cc\	-ra,	1ee\	-ra
4c/	-gam	4g\	-gam	4cc\	-gam	4ee\	-gam	.	.	.	.	.	.	.	.
4c/	di-	4g\	di-	4cc\	di-	4ee\	di-	.	.	.	.	.	.	.	.
=73-	=73-	=73-	=73-	=73-	=73-	=73-	=73-	=73-	=73-	=73-	=73-	=73-	=73-	=73-	=73-
!	!	!	!	!	!	!	!	!	!	!	!	!	!	!LO:LB:g=original	!
4.G/	-lu-	4.g\	-lu-	4.b\	-lu-	4.dd\	-lu-	4r	.	4r	.	4r	.	4r	.
.	.	.	.	.	.	.	.	4g\	e-	4g\	e-	4b\	e-	4gg\	e-
*	*	*	*	*custos:g	*	*	*	*	*	*	*	*	*	*	*
8G/	-cu-	8g\	-cu-	8b\	-cu-	8dd\	-cu-	.	.	.	.	.	.	.	.
!	!	!	!	!LO:LB:g=original	!	!	!	!	!	!	!	!	!	!	!
2c/	-lo	2g\	-lo	2g/	-lo	2ee\	-lo	2c/	-xur-	2g\	-xur-	2cc\	-xur-	2ee\	-xur-
2r	.	2r	.	2r	.	2r	.	4c/	-gam	4g\	-gam	4cc\	-gam	4ee\	-gam
.	.	.	.	.	.	.	.	4c/	di-	4e/	di-	4cc\	di-	4ee\	di-
!	!	!	!	!	!	!	!	!LO:LB:g=original	!	!	!	!	!	!	!
4r	.	4r	.	4r	.	4r	.	4.G/	-lu-	4.g\	-lu-	4.b\	-lu-	4.dd\	-lu-
*	*ij	*	*ij	*	*ij	*	*ij	*	*	*	*	*	*	*	*
4g\	e-	4g\	e-	4b\	e-	4gg\	e-	.	.	.	.	.	.	.	.
.	.	.	.	.	.	.	.	8G/	-cu-	8g\	-cu-	8b\	-cu-	8dd\	-cu-
=75-	=75-	=75-	=75-	=75-	=75-	=75-	=75-	=75-	=75-	=75-	=75-	=75-	=75-	=75-	=75-
2c/	-xur-	2g\	-xur-	2cc\	-xur-	2ee\	-xur-	2c/	-lo	2g\	-lo	2g/	-lo	2ee\	-lo
4c/	-gam	4g\	-gam	4cc\	-gam	4ee\	-gam	2r	.	2r	.	2r	.	2r	.
4c/	di-	4g\	di	4cc\	di-	4ee\	di-	.	.	.	.	.	.	.	.
*	*	*	*	*	*	*	*	*	*	*	*	*custos:c	*	*	*
4.G/	-lu-	4.g\	lu-	4.b\	-lu-	4.dd\	-lu-	1r	.	1r	.	1r	.	1r	.
*custos:c	*	*	*	*	*	*	*	*	*	*	*	*	*	*	*
8G/	-cu-	8g\	-cu-	8b\	-cu-	8dd\	-cu-	.	.	.	.	.	.	.	.
!LO:LB:g=original	!	!	!	!	!	!	!	!	!	!	!	!	!	!	!
2c/	-lo	2g\	-lo	2cc\	-lo	2ee\	-lo	.	.	.	.	.	.	.	.
*	*Xij	*	*Xij	*	*Xij	*	*Xij	*	*	*	*	*	*	*	*
.	.	.	.	.	.	.	.	.	.	.	.	.	.	.	.
=77-	=77-	=77-	=77-	=77-	=77-	=77-	=77-	=77-	=77-	=77-	=77-	=77-	=77-	=77-	=77-
!	!	!	!	!	!	!	!	!	!	!	!	!LO:LB:g=original	!	!	!
00r	.	00r	.	00r	.	00r	.	4.A/	con-	4.a\	con-	4.cc#X\	con-	4.ee\	con-
.	.	.	.	.	.	.	.	8A/	-fi-	8a\	-fi-	8cc#\	-fi-	8ee\	-fi-
.	.	.	.	.	.	.	.	4A/	-te-	4a\	-te-	4cc#\	-te	4ee\	-te-
*	*	*	*	*	*	*	*	*	*	*custos:e	*	*	*	*	*
.	.	.	.	.	.	.	.	4Bny/	-bor	4g\	-bor	4dd\	-bor	4dd\,<	-bor
!	!	!	!	!	!	!	!	!	!	!LO:LB:g=original	!	!	!	!	!
.	.	.	.	.	.	.	.	2c#X/	ti-	2e/	ti-	2.a\	ti-	2ee\	ti-
.	.	.	.	.	.	.	.	2d\	-bi	2a\	-bi	.	.	2ff\	-bi
.	.	.	.	.	.	.	.	.	.	.	.	4b\	-bi	.	.
=79-	=79-	=79-	=79-	=79-	=79-	=79-	=79-	=79-	=79-	=79-	=79-	=79-	=79-	=79-	=79-
.	.	.	.	.	.	.	.	2A/	in	2a,<\	in	2cc#X\	in	2ee\	in
.	.	.	.	.	.	.	.	.	.	.	.	.	.	.	.
.	.	.	.	.	.	.	.	2.B-X/	po-	2.f\	po-	2.dd\	po-	2.dd\	po-
.	.	.	.	.	.	.	.	.	.	.	.	.	.	.	.
.	.	.	.	.	.	.	.	4B-/	-pu-	4f\	-pu-	4dd\	-pu-	4dd\	-pu-
.	.	.	.	.	.	.	.	2G/	-lis	2g\,<	-lis	2b-X\	-lis	2ee\	-lis
=81-	=81-	=81-	=81-	=81-	=81-	=81-	=81-	=81-	=81-	=81-	=81-	=81-	=81-	=81-	=81-
0r	.	0r	.	0r	.	0r	.	1.A/	Do-	2g\	Do-	1.a\	Do-	2cc#X\	Do-
.	.	.	.	.	.	.	.	.	.	2f\	.	.	.	1dd\	-mi-
.	.	.	.	.	.	.	.	.	.	2.e/	.	.	.	.	.
.	.	.	.	.	.	.	.	2A/	-mi-	.	.	2a\	-mi-	2cc#X\	.
.	.	.	.	.	.	.	.	.	.	4e/	-mi-	.	.	.	.
=83-	=83-	=83-	=83-	=83-	=83-	=83-	=83-	=83-	=83-	=83-	=83-	=83-	=83-	=83-	=83-
1r	.	1r	.	1r	.	1r	.	1d\	-ne	1f#X\	-ne	1a\	-ne	1dd\	-ne
=84-	=84-	=84-	=84-	=84-	=84-	=84-	=84-	=84-	=84-	=84-	=84-	=84-	=84-	=84-	=84-
*M3/2	*	*M3/2	*	*M3/2	*	*M3/2	*	*M3/2	*	*M3/2	*	*M3/2	*	*M3/2	*
00.r	.	00.r	.	00.r	.	00.r	.	1d\	et	1a\,<	Et	1dd\	Et	1ff\	et
.	.	.	.	.	.	.	.	1A/	psal-	1a\	psal-	1ccny\	pſal-	1ee\	psal-
.	.	.	.	.	.	.	.	.	.	.	.	.	.	.	.
*	*	*	*	*	*	*	*	*	*	*	*	*	*	*custos:e	*
.	.	.	.	.	.	.	.	1Bny/	-mu(m)	1g\,<	-mu(m)	1dd\	-mum	1dd\	-mum
=86-	=86-	=86-	=86-	=86-	=86-	=86-	=86-	=86-	=86-	=86-	=86-	=86-	=86-	=86-	=86-
!	!	!	!	!	!	!	!	!	!	!	!	!	!	!LO:LB:g=original	!
.	.	.	.	.	.	.	.	0cny\	di-	0g\	di-	0cc\	di-	0ee\	di-
.	.	.	.	.	.	.	.	.	.	.	.	.	.	.	.
.	.	.	.	.	.	.	.	1A/,<	-cam	1a\,<	-cam	1cc\	-cam	1ff\,<	-cam
=88-	=88-	=88-	=88-	=88-	=88-	=88-	=88-	=88-	=88-	=88-	=88-	=88-	=88-	=88-	=88-
00.r	.	00.r	.	00.r	.	00.r	.	1B-X/	ti-	1fny\	ti-	1b-X\	ti-	1dd\	ti-
.	.	.	.	.	.	.	.	1B-/	-bi	1f\,<	-bi	1b-\	-bi	1dd\	-bi
.	.	.	.	.	.	.	.	.	.	.	.	.	.	.	.
.	.	.	.	.	.	.	.	1G/	in	1b-X\,<	in	1b-\	in	1ee\	in
=90-	=90-	=90-	=90-	=90-	=90-	=90-	=90-	=90-	=90-	=90-	=90-	=90-	=90-	=90-	=90-
!	!	!	!	!	!	!	!	!LO:LB:g=original	!	!	!	!	!	!	!
.	.	.	.	.	.	.	.	0A/	gen-	0a\	gen-	0dd\	gen-	0ee\	gen-
.	.	.	.	.	.	.	.	.	.	.	.	.	.	.	.
!	!	!	!	!	!	!	!	!	!	!	!	!LO:TX:t=P:♯below:problem	!	!	!
.	.	.	.	.	.	.	.	1A/	-ti-	1a\	-ti-	1cc#X\	-ti-	1ee\	-ti-
=92-	=92-	=92-	=92-	=92-	=92-	=92-	=92-	=92-	=92-	=92-	=92-	=92-	=92-	=92-	=92-
1d\	Et	1a\	Et	1dd\	Et	1ff\	et	1d\	-bus	1f\	-bus	1dd\	-bus	1dd\	-bus
1A/	psal-	1a\	psal-	1cc\	pſal-	1ee\	psal-	1r	.	1r	.	1r	.	1r	.
.	.	.	.	.	.	.	.	.	.	.	.	.	.	.	.
*	*	*custos:g	*	*	*	*custos:e	*	*	*	*	*	*	*	*	*
1Bny/	-mu(m)	1g\	-mum	1dd\	-mu(m)	1dd\	-mum	1r	.	1r	.	1r	.	1r	.
=94-	=94-	=94-	=94-	=94-	=94-	=94-	=94-	=94-	=94-	=94-	=94-	=94-	=94-	=94-	=94-
!	!	!LO:LB:g=original	!	!	!	!LO:LB:g=original	!	!	!	!	!	!	!	!	!
0c\	di-	0g\	di-	0cc\	di-	0ee\	di-	00.r	.	00.r	.	00.r	.	00.r	.
.	.	.	.	.	.	.	.	.	.	.	.	.	.	.	.
1A/	-cam	1a\	-cam	1cc\	-cam	1ff\	-cam	.	.	.	.	.	.	.	.
=96-	=96-	=96-	=96-	=96-	=96-	=96-	=96-	=96-	=96-	=96-	=96-	=96-	=96-	=96-	=96-
1B-X/	ti-	1fny\	ti-	1b-X\	ti-	1dd\	ti-	.	.	.	.	.	.	.	.
1B-/	-bi	1f\	-bi	1b-\	-bi	1dd\	-bi	.	.	.	.	.	.	.	.
.	.	.	.	.	.	.	.	.	.	.	.	.	.	.	.
1G/	in	1b-X\	in	1b-\	in	1ee\	in	.	.	.	.	.	.	.	.
=98-	=98-	=98-	=98-	=98-	=98-	=98-	=98-	=98-	=98-	=98-	=98-	=98-	=98-	=98-	=98-
*	*	*	*	*	*	*	*	*	*	*	*	*custos:dd	*	*	*
0A/	gen-	0a\	gen-	0dd\	gen-	0ee\	gen-	00.r	.	00.r	.	00.r	.	00.r	.
.	.	.	.	.	.	.	.	.	.	.	.	.	.	.	.
1A/	-ti-	1a\	-ti-	1cc#X\	-ti-	1ee\	-ti-	.	.	.	.	.	.	.	.
=100-	=100-	=100-	=100-	=100-	=100-	=100-	=100-	=100-	=100-	=100-	=100-	=100-	=100-	=100-	=100-
*	*	*	*	*custos:c	*	*	*	*	*	*	*	*	*	*	*
0.d\	-bus	0.f#X\	-bus	0.dd\	-bus	0.dd\	-bus	.	.	.	.	.	.	.	.
.	.	.	.	.	.	.	.	.	.	.	.	.	.	.	.
=102-	=102-	=102-	=102-	=102-	=102-	=102-	=102-	=102-	=102-	=102-	=102-	=102-	=102-	=102-	=102-
*M2/1	*	*M2/1	*	*M2/1	*	*M2/1	*	*M2/1	*	*M2/1	*	*M2/1	*	*M2/1	*
*met(C|)	*	*met(C|)	*	*met(C|)	*	*met(C|)	*	*met(C|)	*	*met(C|)	*	*met(C|)	*	*met(C|)	*
!	!	!	!	!LO:LB:g=original	!	!	!	!	!	!LO:LB:g=original	!	!LO:LB:g=original	!	!	!
4.A/	con-	4.a\	con-	4.cc#X\	con-	4.ee\	con-	00r	.	00r	.	00r	.	00r	.
8A/	-fi-	8a\	-fi-	8cc#\	-fi-	8ee\	-fi-	.	.	.	.	.	.	.	.
4A/	-te-	4a\	-te-	4cc#\	-te-	4ee\	-te-	.	.	.	.	.	.	.	.
4B/	-bor	4g\	-bor	4dd\	-bor	4dd\	-bor	.	.	.	.	.	.	.	.
2c#X/	ti-	2e/	ti-	2.a\	ti-	2ee\	ti-	.	.	.	.	.	.	.	.
2d\	-bi	2a\	-bi	.	.	2ff\	-bi	.	.	.	.	.	.	.	.
.	.	.	.	4bny\	-bi	.	.	.	.	.	.	.	.	.	.
=104-	=104-	=104-	=104-	=104-	=104-	=104-	=104-	=104-	=104-	=104-	=104-	=104-	=104-	=104-	=104-
2A/	in	2a\	in	2cc#X\	in	2ee\	in	.	.	.	.	.	.	.	.
2.B-X/	po-	2.f\ny	po-	2.dd\	po-	2.dd\	po-	.	.	.	.	.	.	.	.
.	.	.	.	.	.	.	.	.	.	.	.	.	.	.	.
4B-/	-pu-	4f\	-pu-	4dd\	-pu-	4dd\	-pu-	.	.	.	.	.	.	.	.
*custos:A	*	*	*	*	*	*	*	*	*	*	*	*	*	*	*
2G/	-lis	2g\	-lis	2b-X\	-lis	2ee\	-lis	.	.	.	.	.	.	.	.
=106-	=106-	=106-	=106-	=106-	=106-	=106-	=106-	=106-	=106-	=106-	=106-	=106-	=106-	=106-	=106-
!LO:LB:g=original	!	!	!	!	!	!	!	!	!	!	!	!	!	!	!
1.A/	Do-	2g\	Do-	1.a\	Do-	2cc#X\	Do-	0r	.	0r	.	0r	.	0r	.
.	.	2f\	.	.	.	1dd\	.	.	.	.	.	.	.	.	.
.	.	2.e/	.	.	.	.	.	.	.	.	.	.	.	.	.
2A/	-mi-	.	.	2a\	-mi-	2cc#X\	-mi-	.	.	.	.	.	.	.	.
.	.	4e/	-mi-	.	.	.	.	.	.	.	.	.	.	.	.
=108-	=108-	=108-	=108-	=108-	=108-	=108-	=108-	=108-	=108-	=108-	=108-	=108-	=108-	=108-	=108-
*	*	*custos:a	*	*	*	*custos:f	*	*	*	*	*	*	*	*	*
1d\	-ne	1f#X\	-ne	1a\	-ne	1dd\	-ne	1r	.	1r	.	1r	.	1r	.
=109-	=109-	=109-	=109-	=109-	=109-	=109-	=109-	=109-	=109-	=109-	=109-	=109-	=109-	=109-	=109-
*M3/2	*	*M3/2	*	*M3/2	*	*M3/2	*	*M3/2	*	*M3/2	*	*M3/2	*	*M3/2	*
!	!	!LO:LB:g=original	!	!	!	!LO:LB:g=original	!	!	!	!LO:TX:t=P:problem=brak 2 pauz 00.r	!	!	!	!	!
1d\	Et	1a\	Et	1dd\	Et	1ff\	Et	00.r	.	00.ryy	.	00.r	.	00.r	.
1A/	psal-	1a\	psal-	1cc\	psal-	1ee\	psal-	.	.	.	.	.	.	.	.
.	.	.	.	.	.	.	.	.	.	.	.	.	.	.	.
1Bny/	-mu(m)	1g\	-mum	1dd\	-mu(m)	1dd\	-mum	.	.	.	.	.	.	.	.
=111-	=111-	=111-	=111-	=111-	=111-	=111-	=111-	=111-	=111-	=111-	=111-	=111-	=111-	=111-	=111-
0cny\	di-	0g\	di-	0cc\	di-	0ee\	di-	.	.	.	.	.	.	.	.
.	.	.	.	.	.	.	.	.	.	.	.	.	.	.	.
1A/	-cam	1a\	-cam	1cc\	-ca(m)	1ff\	-cam	.	.	.	.	.	.	.	.
=113-	=113-	=113-	=113-	=113-	=113-	=113-	=113-	=113-	=113-	=113-	=113-	=113-	=113-	=113-	=113-
1B-X/	ti-	1a\	ti-	1b-X\	ti-	1dd\	ti-	00.r	.	00.ryy	.	00.r	.	00.r	.
1B-/	-bi	1fny\	-bi	1b-\	-bi	1dd\	-bi	.	.	.	.	.	.	.	.
.	.	.	.	.	.	.	.	.	.	.	.	.	.	.	.
1G/	in	1b-X\	in	1b-X\	in	1ee\	in	.	.	.	.	.	.	.	.
=115-	=115-	=115-	=115-	=115-	=115-	=115-	=115-	=115-	=115-	=115-	=115-	=115-	=115-	=115-	=115-
0A/	gen-	0a\	gen-	0dd\	gen-	0ee\	gen-	.	.	.	.	.	.	.	.
.	.	.	.	.	.	.	.	.	.	.	.	.	.	.	.
!	!	!	!	!LO:TX:t=P:♯below:problem	!	!	!	!	!	!	!	!	!	!	!
1A/	-ti-	1a\	-ti	1cc#X\	-ti-	1ee\	-ti-	.	.	.	.	.	.	.	.
=117-	=117-	=117-	=117-	=117-	=117-	=117-	=117-	=117-	=117-	=117-	=117-	=117-	=117-	=117-	=117-
0d\	-bus	0.f#X\	-bus	1dd\	-bus	1dd\	-bus	1d\	Et	1a\	Et	1dd\	Et	1ff\	Et
.	.	.	.	1r	.	1r	.	1A/	psal-	1a\	psal-	1ccny\	psal-	1ee\	psal-
.	.	.	.	.	.	.	.	.	.	.	.	.	.	.	.
1r	.	.	.	1r	.	1r	.	1Bny/,<	-mum	1g\,<	-mum	1dd\	-mum	1dd\	-mu(m)
=119-	=119-	=119-	=119-	=119-	=119-	=119-	=119-	=119-	=119-	=119-	=119-	=119-	=119-	=119-	=119-
!	!	!	!	!LO:LB:g=original	!	!	!	!	!	!	!	!	!	!	!
00.r	.	00.r	.	00.r	.	00.r	.	0c\	di-	0g\	di-	0cc\	di-	0ee\	di-
.	.	.	.	.	.	.	.	.	.	.	.	.	.	.	.
.	.	.	.	.	.	.	.	1A/	-cam	1a\,<	-cam	1cc\	-cam	1ff\	-ca(m)
=121-	=121-	=121-	=121-	=121-	=121-	=121-	=121-	=121-	=121-	=121-	=121-	=121-	=121-	=121-	=121-
.	.	.	.	.	.	.	.	1B-X/	ti-	1f\	ti-	1b-X\	ti-	1ee\	ti-
.	.	.	.	.	.	.	.	1B-/	-bi	1f\	-bi	1b-\	-bi	1dd\	-bi
.	.	.	.	.	.	.	.	.	.	.	.	.	.	.	.
.	.	.	.	.	.	.	.	1G/	in	1b-X\	in	1b-\	in	1ee\	in
=123-	=123-	=123-	=123-	=123-	=123-	=123-	=123-	=123-	=123-	=123-	=123-	=123-	=123-	=123-	=123-
00.r	.	00.r	.	00.r	.	00.r	.	0A/	gen-	0a\	gen-	0dd\	gen-	0ee\	gen-
.	.	.	.	.	.	.	.	.	.	.	.	.	.	.	.
!	!	!	!	!	!	!	!	!	!	!	!	!LO:TX:t=P:♯below:problem	!	!	!
.	.	.	.	.	.	.	.	1A/	-ti-	1a\	-ti-	1cc#X\	-ti-	1ee\	-ti-
=125-	=125-	=125-	=125-	=125-	=125-	=125-	=125-	=125-	=125-	=125-	=125-	=125-	=125-	=125-	=125-
.	.	.	.	.	.	.	.	0.d\	-bus	0.f#X\	-bus	0.dd\	-bus	0.dd\	-bus
.	.	.	.	.	.	.	.	.	.	.	.	.	.	.	.
=127-	=127-	=127-	=127-	=127-	=127-	=127-	=127-	=127-	=127-	=127-	=127-	=127-	=127-	=127-	=127-
*M2/1	*	*M2/1	*	*M2/1	*	*M2/1	*	*M2/1	*	*M2/1	*	*M2/1	*	*M2/1	*
*met(C|)	*	*met(C|)	*	*met(C|)	*	*met(C|)	*	*met(C|)	*	*met(C|)	*	*met(C|)	*	*met(C|)	*
*	*	*	*	*	*	*	*	*	*	*	*	*	*	*custos:f	*
1A/	Et	0r	.	0r	.	0r	.	1A/	et	1a\	et	1cc#X\	et	1ee\	et
!	!	!	!	!	!	!	!	!	!	!	!	!	!	!LO:PB:g=original	!
2.d\	psal-	.	.	.	.	.	.	2.d\	pſal-	2.a\	psal-	2.dd\	pſal-	2.ff\	psal-
4d\	-mum	.	.	.	.	.	.	4d\	-mu(m)	4a\	-mum	4dd\	-mu(m)	4ff\	-mu(m)
=129-	=129-	=129-	=129-	=129-	=129-	=129-	=129-	=129-	=129-	=129-	=129-	=129-	=129-	=129-	=129-
2d\	di-	2r	.	2r	.	2r	.	2d\	di-	2a\,<	di-	2dd\	di-	2ff\	di-
*	*	*	*	*	*	*	*	*custos:d	*	*	*	*	*	*	*
2A/	-ca(m)	2a\	et	2cc#X\	et	2ee\	et	2A/	-cam	2a\	-ca(m)	2cc#X,<\	-ca(m)	2ee\	-cam
!	!	!	!	!	!	!	!	!LO:PB:g=original	!	!	!	!	!	!	!
1d\	ti-	4.a\	psal-	4.dd\	psal-	4.ff\	psal-	1d\	ti-	1fny\	ti-	1a\	ti-	1dd\	ti-
.	.	8a\	-mum	8dd\	-mu(m)	8ff\	-mum	.	.	.	.	.	.	.	.
.	.	4a\	di-	4dd\	di-	4ff\	di-	.	.	.	.	.	.	.	.
.	.	4a\	-ca(m)	4dd\	-ca(m)	4ff\	-cam	.	.	.	.	.	.	.	.
=131-	=131-	=131-	=131-	=131-	=131-	=131-	=131-	=131-	=131-	=131-	=131-	=131-	=131-	=131-	=131-
2d\	-bi	1a\	ti-	1a\	ti-	1ff\	ti-	2d\	-bi	2f\	-bi	2a\	-bi	2dd\	-bi
2d\	in	.	.	.	.	.	.	2d\	in	2f,<\	in	2a\	in	2dd\	in
1.A/	gen-	2g\	-bi	2a\	-bi	2ee\	-bi	1.A/	gen-	1.a\	gen-	1.a\	gen-	2cc#X\	gen-
*	*	*	*	*	*	*custos:d	*	*	*	*	*	*	*	*	*
.	.	2f\ny	in	2dd\	in	2dd\	in	.	.	.	.	.	.	2dd\	.
=133-	=133-	=133-	=133-	=133-	=133-	=133-	=133-	=133-	=133-	=133-	=133-	=133-	=133-	=133-	=133-
!	!	!	!	!	!	!LO:LB:g=original	!	!	!	!	!	!	!	!	!
.	.	2.e/	gen-	2.a\	gen-	2dd\	gen-	.	.	.	.	.	.	2.ee\	.
2A/	-ti-	.	.	.	.	2cc#X\	-ti-	2A/	-ti-	2a\	-ti-	2a\	-ti-	.	.
.	.	4e/	-ti-	4a\	-ti-	.	.	.	.	.	.	.	.	4ee\	-ti-
*custos:A	*	*	*	*	*	*	*	*	*	*custos:a	*	*custos:a	*	*	*
1d\	-bus	1f#X\	-bus	1a\	-bus	1dd\	-bus	1d\	-bus	1f#X\	-bus	1a\	-bus	1dd\	-bus
=135-	=135-	=135-	=135-	=135-	=135-	=135-	=135-	=135-	=135-	=135-	=135-	=135-	=135-	=135-	=135-
*M3/2	*	*M3/2	*	*M3/2	*	*M3/2	*	*M3/2	*	*M3/2	*	*M3/2	*	*M3/2	*
!LO:LB:g=original	!	!LO:TX:t=P:problem=brak pauzy 0.r	!	!	!	!	!	!	!	!LO:PB:g=original	!	!LO:PB:g=original	!	!	!
0.r	.	0.ryy	.	0.r	.	0.r	.	1A/	e-	1a\	e-	1a\	e-	1cc#X\	e-
.	.	.	.	.	.	.	.	1A/	-xur-	1a\	-xur-	1a\	-xur-	1cc#\	-xur-
.	.	.	.	.	.	.	.	.	.	.	.	.	.	.	.
.	.	.	.	.	.	.	.	1d\	-ge	1fny\,<	-ge	1a\,<	-ge	1dd\,<	-ge
=137-	=137-	=137-	=137-	=137-	=137-	=137-	=137-	=137-	=137-	=137-	=137-	=137-	=137-	=137-	=137-
1A/	E-	1a\	E-	1a\	e-	1ee\	e-	1.c#X\	glo-	1.a\	glo-	1.a\	glo-	1.ee\	glo-
1A/	-xur-	1a\	-xur-	1a\	-xur-	1ee\	-xur-	.	.	.	.	.	.	.	.
.	.	.	.	.	.	.	.	2c#/	-ri-	2a\	-ri-	2a\	-ri-	2ee\	-ri-
*	*	*custos:a	*	*	*	*	*	*	*	*	*	*	*	*	*
1d\	-ge	1fny\	-ge	1a\	-ge	1dd\	-ge	1d\	-a	1a\,<	-a	1a\,<	-a	1ff\	-a
=139-	=139-	=139-	=139-	=139-	=139-	=139-	=139-	=139-	=139-	=139-	=139-	=139-	=139-	=139-	=139-
!	!	!LO:LB:g=original	!	!	!	!	!	!	!	!	!	!	!	!	!
1.c#X\	glo-	1.a\	glo-	1.a\	glo-	1.ee\	glo-	0A/	me-	0a\	me-	0a\	me-	0ee\	me-
2c#/	-ri-	2a\	-ri-	2a\	-ri-	2ee\	-ri-	.	.	.	.	.	.	.	.
1d\	-a	1a\	-a	1a\,<	-a	1ff\,<	-a	1d\,<	-a	1f\,<	-a	1a\,<	-a	1dd\,<	-a
=141-	=141-	=141-	=141-	=141-	=141-	=141-	=141-	=141-	=141-	=141-	=141-	=141-	=141-	=141-	=141-
0A/	me-	0a\	me-	0a\	me-	0ee\	me-	1A/	e-	1a\	e-	1a\	e-	1ee\	e-
.	.	.	.	.	.	.	.	1A/	-xur-	1a\	-xur-	1a\	-xur-	1ee\	-xur-
.	.	.	.	.	.	.	.	.	.	.	.	.	.	.	.
1d\	-a	1a\	-a	1a\,<	-a	1dd\,<	-a	1d\,<	-ge	1f\,<	-ge	1a\,<	-ge	1ff\,<	-ge
=143-	=143-	=143-	=143-	=143-	=143-	=143-	=143-	=143-	=143-	=143-	=143-	=143-	=143-	=143-	=143-
*	*	*	*	*	*	*	*ij	*	*	*	*	*	*	*	*
1A/	e-	1a\	e-	1a\	e-	1ee\	e-	1.c#X\	glo-	1.a\	glo-	1.a\	glo-	1.ee\	glo-
1A/	-xur-	1a\	-xur-	1a\	-xur-	1ee\	-xur-	.	.	.	.	.	.	.	.
*	*	*	*	*	*	*	*	*	*	*	*	*	*	*custos:d	*
.	.	.	.	.	.	.	.	2c#/	-ri-	2a\	-ri-	2a\	-ri-	2ee\	-ri-
*	*	*	*	*custos:a	*	*	*	*	*	*	*	*	*	*	*
!	!	!	!	!	!	!	!	!	!	!	!	!	!LO:LB:g=original	!	!
1d\	-ge	1f\	-ge	1a\	-ge	1ff\	-ge	1d\	-a	1a\	-a	1a\,<	-a	1dd\	-a
=145-	=145-	=145-	=145-	=145-	=145-	=145-	=145-	=145-	=145-	=145-	=145-	=145-	=145-	=145-	=145-
!	!	!	!	!LO:LB:g=original	!	!	!	!	!	!	!	!	!	!	!
1.c#X\	glo-	1.a\	glo-	1.a\	glo-	1.ee\	glo-	0A/	me-	0a\	me-	0a\	me-	0ee\	me-
2c#/	-ri-	2a\	-ri-	2a\	-ri-	2cc#X\	-ri-	.	.	.	.	.	.	.	.
1d\	-a	1a\	-a	1a\	-a	1dd\	-a	1d\	-a	1f\	-a	1a\	-a	1dd\	-a
=147-	=147-	=147-	=147-	=147-	=147-	=147-	=147-	=147-	=147-	=147-	=147-	=147-	=147-	=147-	=147-
0A/	me-	0a\	me-	0a\	me-	0cc#X\	me-	0.r	.	0.r	.	0.r	.	0.r	.
.	.	.	.	.	.	.	.	.	.	.	.	.	.	.	.
*	*	*	*	*	*	*custos:e	*	*	*	*	*	*	*	*	*
1d\	-a	1f\	-a	1a\	-a	1dd\	-a	.	.	.	.	.	.	.	.
=149-	=149-	=149-	=149-	=149-	=149-	=149-	=149-	=149-	=149-	=149-	=149-	=149-	=149-	=149-	=149-
*M2/1	*	*M2/1	*	*M2/1	*	*M2/1	*Xij	*M2/1	*	*M2/1	*	*M2/1	*	*M2/1	*
*met(C|)	*	*met(C|)	*	*met(C|)	*	*met(C|)	*	*met(C|)	*	*met(C|)	*	*met(C|)	*	*met(C|)	*
!	!	!	!	!LO:TX:t=P:♯below:problem	!	!LO:LB:g=original	!	!	!	!	!	!	!	!	!
2A/	e-	2a\	e-	2cc#X\	e-	2ee\	e-	0r	.	0r	.	0r	.	0r	.
2d\	-xur-	2a\	-xur-	2dd\	-xur-	2ff\	-xur-	.	.	.	.	.	.	.	.
4G/	-ge	4g\	-ge	4bny\	-ge	4dd\	-ge	.	.	.	.	.	.	.	.
4G/	psal-	4g\	pſal-	4b\	psal-	4dd\	psal-	.	.	.	.	.	.	.	.
4.cny/	-te-	4.g\	-te-	4.ccny\	-te-	4.ee\	-te-	.	.	.	.	.	.	.	.
8c/	-ri-	8g\	-ri-	8cc\	-ri-	8ee\	-ri-	.	.	.	.	.	.	.	.
=151-	=151-	=151-	=151-	=151-	=151-	=151-	=151-	=151-	=151-	=151-	=151-	=151-	=151-	=151-	=151-
4F/	-um	4a\	-um	4cc\	-um	4ff\	-um	1r	.	1r	.	1r	.	1r	.
4G/	et	4a\	et	4cc\	et	4dd\	et	.	.	.	.	.	.	.	.
4A/	Ci-	4g\	Ci-	4b-X\	Ci-	4dd\	Ci-	.	.	.	.	.	.	.	.
4Bny/	-tha-	4e/	-tha-	4a\	-tha-	4cc#X\	-tha-	.	.	.	.	.	.	.	.
*	*	*	*	*	*	*	*	*custos:a	*	*	*	*	*	*	*
2d\	-ra	2f\	-ra	2g\	-ra	2dd\	-ra	2d\	e-	2a\	e-	2dd\	e-	2ff\	e-
*custos:A	*	*	*	*	*	*	*	*	*	*	*	*	*	*	*
!	!	!	!	!	!	!	!LO:LB:g=original	!	!	!	!	!	!	!	!
2r	.	2r	.	2r	.	2r	.	2a\	-xur-	2a\	-xur-	2cc#X\	-xur-	2ee\	-xur-
=153-	=153-	=153-	=153-	=153-	=153-	=153-	=153-	=153-	=153-	=153-	=153-	=153-	=153-	=153-	=153-
1r	.	1r	.	1r	.	1r	.	4f\,<	-gam	4a\	-gam	4dd\	-gam	4ff\	-gam
*	*	*	*	*	*	*	*	*	*	*custos:g	*	*	*	*	*
.	.	.	.	.	.	.	.	4d\	di-	4a\	di-	4dd\	di-	4ff\	di-
!	!	!	!	!	!	!	!	!	!	!LO:LB:g=original	!	!	!	!	!
.	.	.	.	.	.	.	.	4.e\	-lu-	4.g#X\	-lu-	4.bny\	-lu-	4.ee\	-lu-
.	.	.	.	.	.	.	.	8e\	-cu-	8g#\	-cu-	8b\	-cu-	8ee\	-cu-
*	*	*	*	*	*	*	*	*	*	*	*	*custos:c	*	*	*
2r	.	2r	.	2r	.	2r	.	1A/	-lo	2a\	-lo	1cc#X\	-lo	1ee\	-lo
2A/	e-	2a\	e-	2cc#X\	e-	2ee\	e-	.	.	2r	.	.	.	.	.
=155-	=155-	=155-	=155-	=155-	=155-	=155-	=155-	=155-	=155-	=155-	=155-	=155-	=155-	=155-	=155-
!	!	!	!	!	!	!	!	!	!	!	!	!LO:LB:g=original	!	!	!
2d\	-xur-	2f\	-xur-	2dd\	-xur-	2ff\	-xur-	2r	.	2r	.	2r	.	2r	.
2A/	-ge	2a\	-ge	2cc#X\	-ge	2ee\	-ge	4r	.	4r	.	4r	.	4r	.
.	.	.	.	.	.	.	.	4A/	e-	4a\	e-	4cc#X\	e-	4ee\	e-
2r	.	2r	.	2r	.	2r	.	2d\	-xur-	2f\	-xur-	2dd\	-xur-	2ff\	-xur-
4r	.	4r	.	4r	.	4r	.	2A/	-ge	2a\	-ge	2cc#X\	-ge	2ee\	-ge
*	*	*	*	*	*	*	*ij	*	*	*	*	*	*	*	*
*	*	*custos:f	*	*	*	*	*	*	*	*	*	*	*	*	*
4A/	e-	4a\	e-	4cc#X\	e-	4ee\	e-	.	.	.	.	.	.	.	.
=157-	=157-	=157-	=157-	=157-	=157-	=157-	=157-	=157-	=157-	=157-	=157-	=157-	=157-	=157-	=157-
*	*	*	*	*custos:b	*	*	*	*	*	*	*	*	*	*	*
!	!	!LO:LB:g=original	!	!	!	!	!	!	!	!	!	!	!	!	!
2d\	-xur-	2f#X\	-xur-	2a\	-xur-	2dd\	-xur-	4r	.	4r	.	4r	.	4r	.
.	.	.	.	.	.	.	.	4d\	e-	4a\	e-	4b\	e-	4dd\	e-
!	!	!	!	!LO:LB:g=original	!	!	!	!	!	!	!	!	!	!	!
2G/	-ge	2g\	-ge	2bny\	-ge	2dd\	-ge	2g\	-xur-	2g\	-xur-	2b\	-xur-	2dd\	-xur-
*	*	*	*	*	*	*	*Xij	*	*	*	*	*	*	*	*
1r	.	1r	.	1r	.	1r	.	4cny/	-ge	4g\,<	-ge	4ccny\,<	-ge	4ee\	-ge
.	.	.	.	.	.	.	.	4c/	psal-	4g\	psal-	4cc\,<	psal-	4ee\	pſal-
.	.	.	.	.	.	.	.	4.f\	-te-	4.a\	-te-	4.a\	-te-	4.ccny\	-te-
.	.	.	.	.	.	.	.	8f\	-ri-	8a\	-ri-	8b\	-ri-	8dd\	-ri-
=159-	=159-	=159-	=159-	=159-	=159-	=159-	=159-	=159-	=159-	=159-	=159-	=159-	=159-	=159-	=159-
2r	.	2r	.	2r	.	2r	.	4c/	-um	4g\	-um	4cc\	-um	4ee\	-um
.	.	.	.	.	.	.	.	4e\	et	4g\	et	4cc\	et	4ee\	et
4r	.	4r	.	4r	.	4r	.	4f\	Ci-	4a\	Ci-	4cc\	ci-	4.dd\	Ci-
4G/	e-	4g\	e-	4dd\	e-	4gg\	e-	4g\	-tha-	4g\	-tha-	4b\	-tha-	.	.
*	*	*	*	*	*	*	*	*	*	*	*	*	*	*custos:e	*
.	.	.	.	.	.	.	.	.	.	.	.	.	.	8dd\	-tha-
!	!	!	!	!	!	!	!	!	!	!	!	!	!	!LO:LB:g=original	!
2c/	-xur-	2g\	-xur-	2ccny\	-xur-	2ee\	-xur-	1c\	-ra	1g\	-ra	1cc\	-ra	1ee\	-ra
4c/	-ga(m)	4g\	-ga(m)	4cc\,<	-gam	4ee\	-gam	.	.	.	.	.	.	.	.
*	*	*	*	*	*	*custos:d	*	*	*	*	*	*	*	*	*
4c/	di-	4g\	di-	4cc\	di-	4ee\	di-	.	.	.	.	.	.	.	.
=161-	=161-	=161-	=161-	=161-	=161-	=161-	=161-	=161-	=161-	=161-	=161-	=161-	=161-	=161-	=161-
!	!	!	!	!	!	!LO:PB:g=original	!	!	!	!	!	!	!	!	!
4.G/	-lu-	4.g\	-lu-	4.b\	-lu-	4.dd\	-lu-	4r	.	4r	.	4r	.	4r	.
.	.	.	.	.	.	.	.	4g\	e-	4g\	e-	4b\	e-	4gg\	e-
8G/	-cu-	8g\	-cu-	8b\	-cu-	8dd\	-cu-	.	.	.	.	.	.	.	.
2c/	-lo	2g\	-lo	2g/	-lo	2ee\	-lo	2c/	-xur-	2g\	-xur-	2cc\	-xur-	2ee\	-xur-
2r	.	2r	.	2r	.	2r	.	4c/	-gam	4g\	-gam	4cc\	-gam	4ee\	-gam
.	.	.	.	.	.	.	.	4c/	di-	4e/	di	4cc\	di-	4ee\	di
4r	.	4r	.	4r	.	4r	.	4.G/	-lu-	4.g\	lu-	4.b\	-lu-	4.dd\	lu-
4g\	e-	4g\	e-	4b\	e-	4gg\	e-	.	.	.	.	.	.	.	.
*	*	*	*	*	*	*	*	*	*	*custos:g	*	*	*	*	*
.	.	.	.	.	.	.	.	8G/	-cu-	8g\	-cu-	8b\	-cu-	8dd\	-cu-
=163-	=163-	=163-	=163-	=163-	=163-	=163-	=163-	=163-	=163-	=163-	=163-	=163-	=163-	=163-	=163-
!	!	!	!	!	!	!	!	!	!	!LO:LB:g=original	!	!	!	!	!
2c/	-xur-	2g\	-xur-	2cc\	-xur-	2ee\	-xur-	2c/	-lo	2g\	-lo	2g/	-lo	2ee\	-lo
4c/	-ga(m)	4g\	-gam	4cc\	-ga(m)	4ee\	-gam	2r	.	2r	.	2r	.	2r	.
4c/	di-	4g\	di-	4cc\	di	4ee\	di-	.	.	.	.	.	.	.	.
4.G/	-lu-	4.g\	-lu-	4.b\	lu-	4.dd\	-lu-	2r	.	2r	.	2r	.	2r	.
8G/	-cu-	8g\	-cu-	8b\	-cu-	8dd\	-cu-	.	.	.	.	.	.	.	.
*	*	*	*	*	*	*	*	*custos:b	*	*	*	*	*	*	*
2c/	-lo	2g\	-lo	2cc\	-lo	2ee\	-lo	2c/	e-	2e/	e-	2cc\	e-	2ee\	e-
=165-	=165-	=165-	=165-	=165-	=165-	=165-	=165-	=165-	=165-	=165-	=165-	=165-	=165-	=165-	=165-
!	!	!	!	!	!	!	!	!LO:LB:g=original	!	!	!	!	!	!	!
1r	.	1r	.	1r	.	1r	.	2B-X/	-xur-	2f\	-xur-	2f/	-xur-	2dd\	-xur-
.	.	.	.	.	.	.	.	4B-/	-gam	4f\	-gam	4b-X\,<	-gam	4dd\	-gam
*	*	*	*	*	*	*	*	*	*	*	*	*custos:d	*	*	*
.	.	.	.	.	.	.	.	4A/	di-	4f\	di-	4cc\	di-	4cc\	di
!	!	!	!	!	!	!	!	!	!	!	!	!LO:LB:g=original	!	!	!
2r	.	2r	.	2r	.	2r	.	1.G/	-lu-	1.g\	-lu-	4dd\	-lu-	2.b-X/	lu-
.	.	.	.	.	.	.	.	.	.	.	.	4cc\	.	.	.
*custos:d	*	*	*	*	*	*	*	*	*	*	*	*	*	*	*
2g\	e-	2g-X\	e-	2b-X\	e-	2dd\	e-	.	.	.	.	4b-X\	-cu-	.	.
.	.	.	.	.	.	.	.	.	.	.	.	4a\	.	4cc\	.
=167-	=167-	=167-	=167-	=167-	=167-	=167-	=167-	=167-	=167-	=167-	=167-	=167-	=167-	=167-	=167-
!LO:LB:g=original	!	!	!	!	!	!	!	!	!	!	!	!	!	!	!
1d\	-xur-	2g-y\	-xur-	2b-y\	-xur-	4dd\	-xur-	.	.	.	.	2g/	-lo	2dd\	.
.	.	.	.	.	.	4ccny\	.	.	.	.	.	.	.	.	.
.	.	4f\ny	-gam	4a\	-gam	4b-X\	.	2F#X/	.	2d/	-cu-	2a\	di	2dd\	-cu-
.	.	4f\	di-	4a\	di	4a/	.	.	.	.	.	.	.	.	.
2d\	-gam	2.e/	-lu-	2.g/	lu-	2b-X\	-gam	1.G/	.	2d/	-lo	1.b-X\	lu-	2dd\,<	-lo
2d\	di-	.	.	.	.	2dd\	di-	.	.	2g\	di	.	.	2dd\	di-
.	.	4f\	.	4a\	.	.	.	.	.	.	.	.	.	.	.
=169-	=169-	=169-	=169-	=169-	=169-	=169-	=169-	=169-	=169-	=169-	=169-	=169-	=169-	=169-	=169-
2.g\	-lu-	2g-X\	.	2b-X\	.	2.dd\	-lu-	.	.	2.g\	lu-	.	.	2.dd\	-lu-
.	.	2e/	-cu-	2g/	-cu-	.	.	2G/	-cu-	.	.	2b-X\	-cu-	.	.
4g\	-cu-	.	.	.	.	4dd\	-cu-	.	.	4g\	-cu-	.	.	4dd\	-cu-
0d\	-lo	0f#X\	-lo	0a\	-lo	0dd\;;	-lo	0d\	-lo	0f#X\	-lo,	0a\	-lo	0dd\	-lo
==	==	==	==	==	==	==	==	==	==	==	==	==	==	==	==
*-	*-	*-	*-	*-	*-	*-	*-	*-	*-	*-	*-	*-	*-	*-	*-
!!!system-decoration: [(s1,s2,s3,s4)][(s5,s6,s7,s8)]
!!!RDF**kern: > = above
!!!RDF**kern: < = below
!!!ENC: Andrzej Gręziak
!!!END: 2021-10-09
!!!EED: Andrzej Borzym
!!!EEV: 2021-10-16
